src/laptop.svg

<?xml version="1.0" encoding="utf-8"?>
<!-- Generated by IcoMoon.io -->
<!DOCTYPE svg PUBLIC "-//W3C//DTD SVG 1.1//EN" "http://www.w3.org/Graphics/SVG/1.1/DTD/svg11.dtd">
<svg version="1.1" xmlns="http://www.w3.org/2000/svg" xmlns:xlink="http://www.w3.org/1999/xlink" width="512" height="512" viewBox="0 0 512 512">
<path fill="#000000" d="M480 106.3c0-5.6-4.1-10.3-9.6-10.3h-428.2c-5.5 0-10.2 4.6-10.2 10.3v261.7h448v-261.7zM448 336h-384v-208h384v208z"></path>
<path fill="#000000" d="M0 388.7c70.2 19.9 115.8 27.3 256 27.3s185.8-7.3 256-27.3v-4.7h-512v4.7z"></path>
</svg>

<?xml version="1.0" encoding="utf-8"?>
<!-- Generator: Adobe Illustrator 16.2.1, SVG Export Plug-In . SVG Version: 6.00 Build 0)  -->
<!DOCTYPE svg PUBLIC "-//W3C//DTD SVG 1.1//EN" "http://www.w3.org/Graphics/SVG/1.1/DTD/svg11.dtd">
<svg version="1.1" id="Layer_1" xmlns="http://www.w3.org/2000/svg" xmlns:xlink="http://www.w3.org/1999/xlink" x="0px" y="0px"
	 width="512px" height="512px" viewBox="0 0 512 512" style="enable-background:new 0 0 512 512;" xml:space="preserve">
<g>
	<path d="M480,106.3c0-5.6-4.1-10.3-9.6-10.3H42.2c-5.5,0-10.2,4.6-10.2,10.3V368h448V106.3z M448,336H64V128h384V336z"/>
	<path d="M0,388.7C70.2,408.6,115.8,416,256,416c140.2,0,185.8-7.3,256-27.3V384H0V388.7z"/>
</g>
</svg>
